X: 5699
T: Ca The Stirks Frae Oot The Corn
R: strathspey
M: 4/4
K: Amixolydian
|:a|A<A B3/2A/ B/d3/2 e2|d>g B>g A>G E2|D<GB>G A>GB>G|D<D E>G B<A A:|:
g|a>ba>g b<a a2|g>ab>a g>ed>e|g>ag>e d>eg2|e<gd>g B<A A:|

